public/icons/courses/time.svg

<svg width="20" height="19" viewBox="0 0 20 19" fill="none" xmlns="http://www.w3.org/2000/svg">
<path id="Vector" d="M10 0C4.4774 0 0 4.19324 0 9.36533C0 14.5374 4.4774 18.7307 10 18.7307C15.5226 18.7307 20 14.5374 20 9.36533C20 4.19324 15.5226 0 10 0ZM14.6154 10.8062H10C9.79599 10.8062 9.60033 10.7303 9.45607 10.5952C9.31181 10.46 9.23077 10.2768 9.23077 10.0857V3.60205C9.23077 3.41099 9.31181 3.22775 9.45607 3.09264C9.60033 2.95754 9.79599 2.88164 10 2.88164C10.204 2.88164 10.3997 2.95754 10.5439 3.09264C10.6882 3.22775 10.7692 3.41099 10.7692 3.60205V9.36533H14.6154C14.8194 9.36533 15.0151 9.44123 15.1593 9.57634C15.3036 9.71144 15.3846 9.89468 15.3846 10.0857C15.3846 10.2768 15.3036 10.46 15.1593 10.5952C15.0151 10.7303 14.8194 10.8062 14.6154 10.8062Z" fill="#54575A"/>
</svg>

<svg xmlns="http://www.w3.org/2000/svg" fill="none" viewBox="0 0 20 19"><path fill="#54575A" d="M10 0C4.48 0 0 4.2 0 9.37c0 5.17 4.48 9.36 10 9.36s10-4.2 10-9.36C20 4.19 15.52 0 10 0Zm4.62 10.8H10a.8.8 0 0 1-.54-.2.7.7 0 0 1-.23-.51V3.6c0-.19.08-.37.23-.5a.8.8 0 0 1 .54-.22c.2 0 .4.08.54.21a.7.7 0 0 1 .23.51v5.77h3.85c.2 0 .4.07.54.2a.7.7 0 0 1 .22.52.7.7 0 0 1-.22.5.8.8 0 0 1-.54.22Z"/></svg>
